X: 2012
T: Bore Portuguese.
%R: bourr\'ee
B: Henry Playford "Apollo's Banquet", London 1687 (5th Edition)
F: https://archive.org/details/apollosbanquetco01rugg
Z: 2017 John Chambers <jc:trillian.mit.edu>
M: C|
L: 1/8
K: Gm
% - - - - - - - - - -
b>a |\
g2f>e d3^f | g2 g4 d>e | f2d>c c3B | c2 A4 d=e |\
f2^f2 g3a | b2 d4 f>g | e2 d>c c3B | B6 :|
|: f>e |\
d2c>B e3d | c2 c4 d>d | ^F2Bc A3G | G6 de |\
f2g2 a3a | b2 b4 d>c | d2g2 g3^f | g2 g4 |]
% - - - - - - - - - -

%%sep 1 1 500
%%sep 1 1 500

